src/ipa/rpi/pisp/data/imx662_ncnn.json
{
    "version": 2.0,
    "target": "pisp",
    "algorithms": [
        {
            "rpi.black_level": {
                "black_level": 3200
            }
        },
        {
            "rpi.lux": {
                "reference_shutter_speed": 3472,
                "reference_gain": 1.0,
                "reference_aperture": 1.0,
                "reference_lux": 1085,
                "reference_Y": 10987
            }
        },
        {
            "rpi.dpc": {
                "strength": 1
            }
        },
        {
            "rpi.noise": {
                "reference_constant": 0,
                "reference_slope": 2.317
            }
        },
        {
            "rpi.geq": {
                "offset": 160,
                "slope": 0.01206
            }
        },
        {
            "rpi.denoise": {
                "normal": {
                    "sdn": {
                        "deviation": 0.5,
                        "strength": 0.95,
                        "deviation2": 4.0,
                        "deviation_no_tdn": 4.0,
                        "strength_no_tdn": 0.95
                    },
                    "cdn": {
                        "deviation": 100,
                        "strength": 0.3
                    },
                    "tdn": {
                        "deviation": 1.3,
                        "threshold": 0.05
                    }
                },
                "hdr": {
                    "sdn": {
                        "deviation": 3.2,
                        "strength": 0.95,
                        "deviation2": 3.2,
                        "deviation_no_tdn": 3.2,
                        "strength_no_tdn": 0.95
                    },
                    "cdn": {
                        "deviation": 200,
                        "strength": 0.3
                    },
                    "tdn": {
                        "deviation": 1.3,
                        "threshold": 0.1
                    }
                },
                "night": {
                    "sdn": {
                        "deviation": 3.2,
                        "strength": 0.95,
                        "deviation2": 3.2,
                        "deviation_no_tdn": 3.2,
                        "strength_no_tdn": 0.95
                    },
                    "cdn": {
                        "deviation": 200,
                        "strength": 0.3
                    },
                    "tdn": {
                        "deviation": 1.3,
                        "threshold": 0.1
                    }
                }
            }
        },
        {
            "rpi.denoise_ncnn": {
                "param": "/home/pi/ncnn_models/imx662_32_2e11_968x548_fp16.param",
                "bin": "/home/pi/ncnn_models/imx662_32_2e11_968x548_fp16.bin",
		"threads": 2,
		"downscale": true,
		"sdn_disable": true,
		"tdn_disable": false,
		"cdn_disable": false
            }
        },
        {
            "x.rpi.model_denoise": {
                "param": "/home/pi/libcamera/src/ipa/rpi/pisp/data/imx662_ncnn.param",
                "bin": "/home/pi/libcamera/src/ipa/rpi/pisp/data/imx662_ncnn.bin",
                "bstm": false,
                "bstm_full": false,
		"calib": false,
                "bstm_param": "/usr/local/share/libcamera/ipa/rpi/pisp/m9_datafix_bstm.param",
                "bstm_model": "/usr/local/share/libcamera/ipa/rpi/pisp/m9_trunk.bstm",
                "lux_threshold": 999999,
                "sdn_disable": true,
                "tdn_disable": true,
                "cdn_disable": false,
                "demo": false,
                "blend": 1.0,
                "infer_width": 968,
                "infer_height": 548,
                "bnorm_target": 0.115,
                "bnorm_max": 32.0,
                "strength": 1.0,
                "threads": 3,
                "temporal": 2,
                "feed_blend": false,
                "net_pipeline": true,
                "gain_plane": true,
                "fpn_full": true,
                "fpn_strength": 2.0,
                "accum_enable": true,
                "accum_stage": "input",
                "accum_update_first": true,
                "accum_trust": 0.8,
                "accum_k_z": 5.0,
                "accum_sigma_scale": 0.328,
                "accum_pixel_k": 1.0,
                "accum_motion": false,
                "accum_motion_ratio": 0.9,
                "accum_motion_agree": 0.6,
                "accum_reset_frac": 0.5,
                "noise_profiles": {
                    "4": {
                        "a": [
                            0.00064969,
                            0.00065149,
                            0.00065093,
                            0.0006533
                        ],
                        "b": [
                            1.6e-07,
                            3e-08,
                            9e-08,
                            1.2e-07
                        ]
                    },
                    "8": {
                        "a": [
                            0.00129652,
                            0.00117521,
                            0.00117488,
                            0.00130154
                        ],
                        "b": [
                            5.1e-07,
                            6.92e-06,
                            6.84e-06,
                            4.8e-07
                        ]
                    },
                    "16": {
                        "a": [
                            0.00259934,
                            0.00260809,
                            0.00261073,
                            0.0026046
                        ],
                        "b": [
                            1.95e-06,
                            1.42e-06,
                            1.32e-06,
                            9.2e-07
                        ]
                    },
                    "32": {
                        "a": [
                            0.00503405,
                            0.00519154,
                            0.00518717,
                            0.00521247
                        ],
                        "b": [
                            2.09e-05,
                            8.39e-06,
                            8.69e-06,
                            2.07e-06
                        ]
                    },
                    "64": {
                        "a": [
                            0.00977198,
                            0.01039616,
                            0.01042441,
                            0.01047536
                        ],
                        "b": [
                            6.518e-05,
                            1.605e-05,
                            1.484e-05,
                            6.558e-05
                        ]
                    },
                    "128": {
                        "a": [
                            0.02121312,
                            0.02191844,
                            0.02190813,
                            0.02160271
                        ],
                        "b": [
                            0.00022343,
                            0.00022295,
                            0.0002228,
                            0.00022366
                        ]
                    },
                    "256": {
                        "a": [
                            0.0466199,
                            0.04464669,
                            0.04463783,
                            0.04420789
                        ],
                        "b": [
                            0.0006931,
                            0.00069329,
                            0.00069315,
                            0.00069411
                        ]
                    },
                    "512": {
                        "a": [
                            0.08940589,
                            0.09398656,
                            0.09365713,
                            0.09381343
                        ],
                        "b": [
                            0.00229804,
                            0.00229919,
                            0.0023014,
                            0.00229723
                        ]
                    },
                    "1024": {
                        "a": [
                            0.17881178,
                            0.18797312,
                            0.18731426,
                            0.18762686
                        ],
                        "b": [
                            0.00919216,
                            0.00919676,
                            0.0092056,
                            0.00918892
                        ]
                    },
                    "2048": {
                        "a": [
                            0.35762356,
                            0.37594624,
                            0.37462852,
                            0.37525372
                        ],
                        "b": [
                            0.03676864,
                            0.03678704,
                            0.0368224,
                            0.03675568
                        ]
                    }
                },
                "bin2x2": false,
                "net_min_gain": 0.0,
                "accum_ramp": 1,
                "feed_lo": -0.25,
                "bstm_full_model": "/usr/local/share/libcamera/ipa/rpi/pisp/m9_s2d_full.bstm",
                "pack_step": 1,
                "bstm_s2d_block": 8,
                "mem_sigma": false,
                "no_packing": false,
                "fused_pack": true
            }
        },
        {
            "rpi.awb": {
                "enabled": true,
                "priors": [
                    {
                        "lux": 0,
                        "prior": [
                            2000,
                            1.0,
                            3000,
                            0.0,
                            13000,
                            0.0
                        ]
                    },
                    {
                        "lux": 800,
                        "prior": [
                            2000,
                            0.0,
                            6000,
                            2.0,
                            13000,
                            2.0
                        ]
                    },
                    {
                        "lux": 1500,
                        "prior": [
                            2000,
                            0.0,
                            4000,
                            1.0,
                            6000,
                            6.0,
                            6500,
                            7.0,
                            7000,
                            1.0,
                            13000,
                            1.0
                        ]
                    }
                ],
                "modes": {
                    "auto": {
                        "lo": 2910.0,
                        "hi": 5535.0
                    },
                    "incandescent": {
                        "lo": 2910.0,
                        "hi": 3000
                    },
                    "tungsten": {
                        "lo": 3000,
                        "hi": 3500
                    },
                    "fluorescent": {
                        "lo": 4000,
                        "hi": 4700
                    },
                    "indoor": {
                        "lo": 3000,
                        "hi": 5000
                    },
                    "daylight": {
                        "lo": 5500,
                        "hi": 5535.0
                    },
                    "cloudy": {
                        "lo": 5535.0,
                        "hi": 5535.0
                    }
                },
                "bayes": 1,
                "ct_curve": [
                    2910.0,
                    0.5579,
                    0.3553,
                    3600.0,
                    0.4693,
                    0.4364,
                    4490.0,
                    0.3855,
                    0.5469,
                    5535.0,
                    0.3459,
                    0.6131
                ],
                "sensitivity_r": 1.0,
                "sensitivity_b": 1.0,
                "transverse_pos": 0.01,
                "transverse_neg": 0.01
            }
        },
        {
            "rpi.nn.awb": {
                "enabled": false,
                "modes": {
                    "auto": {
                        "lo": 2500,
                        "hi": 7700
                    },
                    "incandescent": {
                        "lo": 2500,
                        "hi": 3000
                    },
                    "tungsten": {
                        "lo": 3000,
                        "hi": 3500
                    },
                    "fluorescent": {
                        "lo": 4000,
                        "hi": 4700
                    },
                    "indoor": {
                        "lo": 3000,
                        "hi": 5000
                    },
                    "daylight": {
                        "lo": 5500,
                        "hi": 6500
                    },
                    "cloudy": {
                        "lo": 7000,
                        "hi": 8000
                    }
                },
                "sensitivity_r": 1.0,
                "sensitivity_b": 1.0,
                "enable_nn": 1,
                "ct_curve": [
                    2910.0,
                    0.5579,
                    0.3553,
                    3600.0,
                    0.4693,
                    0.4364,
                    4490.0,
                    0.3855,
                    0.5469,
                    5535.0,
                    0.3459,
                    0.6131
                ],
                "transverse_pos": 0.01,
                "transverse_neg": 0.01,
                "ccm": [
                    1.62637,
                    -0.40286,
                    -0.2235,
                    -0.36202,
                    1.8185,
                    -0.45648,
                    -0.05838,
                    -0.41639,
                    1.47478
                ]
            }
        },
        {
            "rpi.agc": {
                "channels": [
                    {
                        "comment": "Channel 0 is normal AGC",
                        "metering_modes": {
                            "centre-weighted": {
                                "weights": [
                                    0,
                                    0,
                                    1,
                                    1,
                                    1,
                                    1,
                                    1,
                                    1,
                                    1,
                                    1,
                                    1,
                                    1,
                                    1,
                                    0,
                                    0,
                                    0,
                                    1,
                                    1,
                                    1,
                                    1,
                                    1,
                                    2,
                                    2,
                                    2,
                                    1,
                                    1,
                                    1,
                                    1,
                                    1,
                                    0,
                                    1,
                                    1,
                                    1,
                                    1,
                                    2,
                                    2,
                                    2,
                                    2,
                                    2,
                                    2,
                                    2,
                                    1,
                                    1,
                                    1,
                                    1,
                                    1,
                                    1,
                                    2,
                                    2,
                                    2,
                                    2,
                                    2,
                                    2,
                                    2,
                                    2,
                                    2,
                                    2,
                                    2,
                                    1,
                                    1,
                                    1,
                                    1,
                                    2,
                                    2,
                                    2,
                                    2,
                                    3,
                                    3,
                                    3,
                                    2,
                                    2,
                                    2,
                                    2,
                                    1,
                                    1,
                                    1,
                                    1,
                                    2,
                                    2,
                                    2,
                                    3,
                                    3,
                                    3,
                                    3,
                                    3,
                                    2,
                                    2,
                                    2,
                                    1,
                                    1,
                                    1,
                                    1,
                                    2,
                                    2,
                                    3,
                                    3,
                                    3,
                                    4,
                                    3,
                                    3,
                                    3,
                                    2,
                                    2,
                                    1,
                                    1,
                                    1,
                                    1,
                                    2,
                                    2,
                                    3,
                                    3,
                                    4,
                                    4,
                                    4,
                                    3,
                                    3,
                                    2,
                                    2,
                                    1,
                                    1,
                                    1,
                                    1,
                                    2,
                                    2,
                                    3,
                                    3,
                                    3,
                                    4,
                                    3,
                                    3,
                                    3,
                                    2,
                                    2,
                                    1,
                                    1,
                                    1,
                                    1,
                                    2,
                                    2,
                                    2,
                                    3,
                                    3,
                                    3,
                                    3,
                                    3,
                                    2,
                                    2,
                                    2,
                                    1,
                                    1,
                                    1,
                                    1,
                                    2,
                                    2,
                                    2,
                                    2,
                                    3,
                                    3,
                                    3,
                                    2,
                                    2,
                                    2,
                                    2,
                                    1,
                                    1,
                                    1,
                                    1,
                                    2,
                                    2,
                                    2,
                                    2,
                                    2,
                                    2,
                                    2,
                                    2,
                                    2,
                                    2,
                                    2,
                                    1,
                                    1,
                                    1,
                                    1,
                                    1,
                                    1,
                                    2,
                                    2,
                                    2,
                                    2,
                                    2,
                                    2,
                                    2,
                                    1,
                                    1,
                                    1,
                                    1,
                                    0,
                                    1,
                                    1,
                                    1,
                                    1,
                                    1,
                                    2,
                                    2,
                                    2,
                                    1,
                                    1,
                                    1,
                                    1,
                                    1,
                                    0,
                                    0,
                                    0,
                                    1,
                                    1,
                                    1,
                                    1,
                                    1,
                                    1,
                                    1,
                                    1,
                                    1,
                                    1,
                                    1,
                                    0,
                                    0
                                ]
                            },
                            "spot": {
                                "weights": [
                                    0,
                                    0,
                                    0,
                                    0,
